frontend/public/svg/misc/coffee-cup-1.svg

<svg width="157" height="127" viewBox="0 0 157 127" fill="none" xmlns="http://www.w3.org/2000/svg">
<path d="M110.141 105.576C96.714 121.559 78.41 126.921 57.8404 126.461C48.0426 126.242 38.5532 124.287 29.6507 119.996C21.0151 115.849 13.8877 109.113 9.26087 100.725C1.31196 86.7238 -1.51423 71.802 1.42616 55.9055C1.95451 53.0504 2.78281 50.6968 5.77702 48.7921C14.6953 43.12 24.5975 40.5643 34.7215 39.0179C52.2556 36.3394 69.9583 35.5137 87.6256 37.4768C96.4862 38.571 105.282 40.1405 113.974 42.1782C120.873 43.7088 121.161 44.4426 122.299 51.0283C124.826 50.076 127.287 48.8407 129.89 48.2244C137.928 46.321 146.036 49.694 150.971 56.8566C159.312 68.9647 159.897 90.8936 141.598 103.408C134.633 108.171 127.062 111.108 118.467 109.068C115.705 108.414 113.157 106.871 110.141 105.576ZM7.48613 60.7776C6.80916 74.4717 10.5484 88.0212 18.1529 99.4299C21.9884 105.486 27.6061 110.205 34.2332 112.938C53.1758 120.589 72.1183 120.798 90.7281 111.8C97.8239 108.467 103.608 102.867 107.169 95.8831C113.287 83.9521 114.614 71.1562 114.163 57.8476C111.421 58.838 108.948 60.1448 106.327 60.6043C98.0568 62.0482 89.7633 63.9515 81.4246 64.2738C56.7705 65.2183 32.089 65.4822 7.48613 60.7776ZM12.0851 53.445L12.2439 54.5108C14.8968 54.9591 17.5373 55.7014 20.2033 55.8071C38.4174 56.5291 56.6301 57.4086 74.8546 57.633C84.5454 57.7518 94.2875 56.8966 103.682 54.0559C105.551 53.4814 107.344 52.6811 109.019 51.6728C109.387 51.396 109.684 51.035 109.884 50.6201C110.085 50.2052 110.183 49.7483 110.171 49.2876C110.01 48.8628 109.754 48.4803 109.424 48.169C109.093 47.8577 108.695 47.626 108.262 47.4913C105.439 46.6892 102.579 45.7946 99.6799 45.5393C90.8804 44.7629 82.0645 44.0738 73.24 43.7062C55.8983 42.9842 38.7672 44.4538 22.1113 49.6618C18.7056 50.7257 15.4232 52.1736 12.0851 53.445ZM121.919 60.9351C123.237 60.5505 123.934 60.3174 124.645 60.1435C131.837 58.3871 138.888 61.7272 141.406 68.1935C142.991 72.3095 143.243 76.8194 142.128 81.0866C139.165 93.009 127.383 100.055 114.914 97.4334L113.81 99.9977C117.765 100.51 121.481 101.729 124.999 101.306C134.8 100.125 141.801 94.4096 145.446 85.4289C148.98 76.7285 147.977 67.9605 142.516 60.1743C137.774 53.4167 126.476 53.6386 121.919 60.9351ZM118.297 91.057C129.417 92.5219 138.779 81.0564 135.039 70.2117C133.499 65.7433 126.466 63.7048 122.963 66.7843C122.391 67.4073 122.029 68.194 121.928 69.0336C120.691 76.3012 119.52 83.58 118.297 91.057Z" fill="black"/>
<path d="M71.5597 23.6403C71.4213 27.5784 70.4781 30.6284 67.9781 32.7844C67.3946 33.2055 66.7338 33.5073 66.0335 33.6726C65.3332 33.838 64.6072 33.8635 63.897 33.7479C61.9989 33.3941 61.8768 31.3924 62.392 29.9983C64.2009 25.0994 63.2229 20.5332 61.909 15.673C60.6179 10.8982 62.2233 6.19353 64.8671 1.98247C65.8516 0.417761 67.2509 -0.428245 69.002 0.453873C70.6809 1.29792 70.7085 2.96437 70.0226 4.44967C67.7687 9.34923 67.965 14.0801 70.3639 18.9022C71.1666 20.5096 71.2788 22.4589 71.5597 23.6403Z" fill="black"/>
<path d="M30.7492 33.957C30.8056 33.4942 30.9415 33.0446 31.1509 32.6279C33.4395 29.2537 32.4839 26.0645 30.8811 22.7533C27.625 16.0245 28.6037 9.86546 33.6305 4.36207C34.214 3.7228 34.8415 2.84596 35.5798 2.68581C36.8453 2.41277 38.5334 2.12988 39.4667 2.73765C40.8844 3.65652 40.1545 5.12214 39.2921 6.44269C38.0646 8.36348 36.9638 10.3623 35.9966 12.4265C34.7135 15.0971 35.421 17.6877 36.3904 20.3367C37.4965 23.0444 38.2923 25.8687 38.7624 28.7555C39.1989 32.3122 37.1387 35.4974 34.4825 36.5358C32.2207 37.4185 30.6534 36.4387 30.7492 33.957Z" fill="black"/>
<path d="M81.2775 21.5097C80.6356 19.1049 80.1322 16.7644 79.3827 14.506C77.8672 9.93984 79.1582 5.90791 81.5486 2.06833C82.5633 0.437333 84.0808 -0.588516 85.9651 0.369081C87.9479 1.37722 87.2666 3.14804 86.5558 4.65827C85.7964 6.17182 85.4249 7.85033 85.4747 9.54299C85.5245 11.2356 85.9941 12.8894 86.8413 14.3557C89.4778 19.4003 89.6163 24.519 85.6245 28.9749C84.3315 30.4188 82.3283 31.4126 80.461 32.0951C78.9836 32.6353 77.8902 31.8326 78.5294 29.922C79.4588 27.1516 80.3462 24.368 81.2775 21.5097Z" fill="black"/>
<path d="M53.649 2.89527C53.3685 3.81941 53.0419 4.72891 52.6704 5.62037C50.9055 9.27223 51.3163 12.7528 53.2381 16.2281C55.11 19.6135 56.4811 23.2667 55.8851 27.1509C55.4731 29.3524 54.5625 31.4303 53.223 33.2253C52.6454 34.0274 50.574 34.3791 49.5199 33.9971C48.7862 33.7346 48.0839 31.7479 48.3083 30.7417C49.4346 25.6997 48.4685 21.171 46.2954 16.5373C43.8538 11.3305 45.0404 6.26947 48.7547 1.96324C49.432 1.17563 50.979 0.854745 52.1131 0.877061C52.6513 0.887562 53.1633 2.21596 53.649 2.89527Z" fill="black"/>
</svg>

<svg xmlns="http://www.w3.org/2000/svg" width="157" height="127" fill="none" viewBox="0 0 157 127"><path fill="#000" d="M110.141 105.576c-13.427 15.983-31.731 21.345-52.3 20.885-9.798-.219-19.288-2.174-28.19-6.465a46.05 46.05 0 0 1-20.39-19.271C1.312 86.724-1.514 71.802 1.426 55.905c.529-2.855 1.357-5.208 4.351-7.113 8.918-5.672 18.82-8.228 28.944-9.774 17.535-2.679 35.237-3.504 52.905-1.541a249 249 0 0 1 26.348 4.701c6.899 1.53 7.187 2.265 8.325 8.85 2.527-.952 4.988-2.187 7.591-2.804 8.038-1.903 16.146 1.47 21.081 8.633 8.341 12.108 8.926 34.037-9.373 46.551-6.965 4.763-14.536 7.7-23.131 5.66-2.762-.654-5.31-2.197-8.326-3.492M7.486 60.778A64 64 0 0 0 18.153 99.43a34.7 34.7 0 0 0 16.08 13.508c18.943 7.651 37.885 7.86 56.495-1.138a35.3 35.3 0 0 0 16.441-15.917c6.118-11.93 7.445-24.727 6.994-38.035-2.742.99-5.215 2.297-7.836 2.756-8.27 1.444-16.564 3.348-24.902 3.67-24.654.944-49.336 1.208-73.939-3.496m4.6-7.333.158 1.066c2.653.448 5.293 1.19 7.96 1.296 18.213.722 36.426 1.602 54.65 1.826 9.691.119 19.433-.736 28.828-3.577a24 24 0 0 0 5.337-2.383 2.89 2.89 0 0 0 1.152-2.385 3 3 0 0 0-1.909-1.797c-2.823-.802-5.683-1.696-8.582-1.952-8.8-.776-17.616-1.465-26.44-1.833-17.342-.722-34.473.748-51.129 5.956-3.405 1.064-6.688 2.512-10.026 3.783m109.833 7.49c1.318-.385 2.015-.618 2.726-.791 7.192-1.757 14.243 1.583 16.761 8.05a21.06 21.06 0 0 1 .722 12.893c-2.963 11.922-14.745 18.968-27.214 16.346l-1.104 2.565c3.955.512 7.671 1.731 11.189 1.308 9.801-1.181 16.802-6.896 20.447-15.877 3.534-8.7 2.531-17.469-2.93-25.255-4.742-6.757-16.04-6.535-20.597.761m-3.622 30.122c11.12 1.465 20.482-10 16.742-20.845-1.54-4.469-8.573-6.507-12.076-3.428a4.04 4.04 0 0 0-1.035 2.25c-1.237 7.267-2.408 14.546-3.631 22.023M71.56 23.64c-.139 3.938-1.082 6.988-3.582 9.144a5.47 5.47 0 0 1-4.081.964c-1.898-.354-2.02-2.356-1.505-3.75 1.809-4.899.83-9.465-.483-14.325-1.291-4.775.314-9.48 2.958-13.69.985-1.565 2.384-2.411 4.135-1.53 1.679.845 1.707 2.511 1.02 3.997-2.253 4.9-2.057 9.63.342 14.452.803 1.608.915 3.557 1.196 4.738M30.75 33.957c.056-.463.192-.912.4-1.33 2.29-3.373 1.334-6.563-.269-9.874-3.256-6.728-2.277-12.888 2.75-18.39.583-.64 1.21-1.517 1.949-1.677 1.265-.273 2.953-.556 3.887.052 1.417.919.688 2.384-.175 3.705a52 52 0 0 0-3.295 5.984c-1.283 2.67-.576 5.26.393 7.91a38.7 38.7 0 0 1 2.372 8.419c.437 3.556-1.623 6.741-4.28 7.78-2.261.883-3.829-.097-3.733-2.579M81.278 21.51c-.642-2.405-1.146-4.746-1.895-7.004-1.516-4.566-.225-8.598 2.166-12.438C82.563.438 84.08-.589 85.965.37c1.983 1.008 1.302 2.779.59 4.29a10.22 10.22 0 0 0 .286 9.697c2.637 5.044 2.775 10.163-1.216 14.619-1.293 1.444-3.297 2.438-5.164 3.12-1.477.54-2.57-.262-1.932-2.173.93-2.77 1.817-5.554 2.749-8.412M53.649 2.895a29 29 0 0 1-.979 2.725c-1.764 3.652-1.354 7.133.568 10.608 1.872 3.385 3.243 7.039 2.647 10.923a14.7 14.7 0 0 1-2.662 6.074c-.578.802-2.649 1.154-3.703.772-.734-.262-1.436-2.25-1.212-3.255 1.127-5.042.16-9.571-2.013-14.205-2.441-5.206-1.255-10.268 2.46-14.574.677-.787 2.224-1.108 3.358-1.086.538.01 1.05 1.339 1.536 2.018"/></svg>
